icon-themes/sifr_svg/cmd/lc_datadatapilotrun.svg

<svg viewBox="0 0 24 24" xmlns="http://www.w3.org/2000/svg"><path d="m3 2c-.554 0-1 .446-1 1v2c0 .554.446 1 1 1h2c.554 0 1-.446 1-1v-2c0-.554-.446-1-1-1zm6 0c-.554 0-1 .446-1 1v2c0 .554.446 1 1 1h12c.554 0 1-.446 1-1v-2c0-.554-.446-1-1-1zm-6 6c-.554 0-1 .446-1 1v12c0 .554.446 1 1 1h2c.554 0 1-.446 1-1v-12c0-.554-.446-1-1-1zm14.5625.0625-.28125.28125-2 2c-.18814.18817-.28122.45344-.28125.71875v1h1c.2653 0 .53058-.0931.71875-.28125l.28125-.28125v3.441406c.01613.551114-.195996 1.082873-.585938 1.472656-.389941.389784-.92155.602296-1.472656.585938h-3.503906l.28125-.28125c.18811-.18818.28129-.45344.28125-.71875v-1h-1c-.26529 0-.53057.09304-.71875.28125l-2 2-.28125.28125v.875l.28125.28125 2 2c.18817.18814.45344.28122.71875.28125h1v-1c0-.2653-.0931-.53058-.28125-.71875l-.28125-.28125h3.5625v-.009766c1.057915-.000559 2.077693-.411981 2.828125-1.162109.750902-.750598 1.161731-1.769597 1.162109-2.828125h.009766v-3.5l.28125.28125c.18818.18811.45344.28129.71875.28125h1v-1c0-.26529-.09304-.53057-.28125-.71875l-2-2-.28125-.28125z" fill="#555753"/></svg>

<svg xmlns="http://www.w3.org/2000/svg" viewBox="0 0 24 24">
 <path
     style="fill:#555753"
     d="M 3 2 C 2.446 2 2 2.446 2 3 L 2 5 C 2 5.554 2.446 6 3 6 L 5 6 C 5.554 6 6 5.554 6 5 L 6 3 C 6 2.446 5.554 2 5 2 L 3 2 z M 9 2 C 8.446 2 8 2.446 8 3 L 8 5 C 8 5.554 8.446 6 9 6 L 21 6 C 21.554 6 22 5.554 22 5 L 22 3 C 22 2.446 21.554 2 21 2 L 9 2 z M 3 8 C 2.446 8 2 8.446 2 9 L 2 21 C 2 21.554 2.446 22 3 22 L 5 22 C 5.554 22 6 21.554 6 21 L 6 9 C 6 8.446 5.554 8 5 8 L 3 8 z M 17.5625 8.0625 L 17.28125 8.34375 L 15.28125 10.34375 C 15.09311 10.53192 15.00003 10.79719 15 11.0625 L 15 12.0625 L 16 12.0625 C 16.2653 12.0625 16.53058 11.9694 16.71875 11.78125 L 17 11.5 L 17 14.941406 C 17.01613 15.49252 16.804004 16.024279 16.414062 16.414062 C 16.024121 16.803846 15.492512 17.016358 14.941406 17 L 11.4375 17 L 11.71875 16.71875 C 11.90686 16.53057 12.00004 16.26531 12 16 L 12 15 L 11 15 C 10.73471 15 10.46943 15.09304 10.28125 15.28125 L 8.28125 17.28125 L 8 17.5625 L 8 18.4375 L 8.28125 18.71875 L 10.28125 20.71875 C 10.46942 20.90689 10.73469 20.99997 11 21 L 12 21 L 12 20 C 12 19.7347 11.9069 19.46942 11.71875 19.28125 L 11.4375 19 L 15 19 L 15 18.990234 C 16.057915 18.989675 17.077693 18.578253 17.828125 17.828125 C 18.579027 17.077527 18.989856 16.058528 18.990234 15 L 19 15 L 19 11.5 L 19.28125 11.78125 C 19.46943 11.96936 19.73469 12.06254 20 12.0625 L 21 12.0625 L 21 11.0625 C 21 10.79721 20.90696 10.53193 20.71875 10.34375 L 18.71875 8.34375 L 18.4375 8.0625 L 17.5625 8.0625 z "
     />
 </svg>
